!!!COM: Palestrina, Giovanni Perluigi da
!!!OPR: Missa Salvum me fac
!!!OTL: Agnus I
**kern	**kern	**kern	**kern	**kern
*Ibass	*Itenor	*Icalto	*Icant	*Icant
!Bassus	!Tenor	!Altus	!Cantus 2	!Cantus 1
*clefF4	*clefGv2	*clefG2	*clefG2	*clefG2
*k[b-]	*k[b-]	*k[b-]	*k[b-]	*k[b-]
*G:dor	*G:dor	*G:dor	*G:dor	*G:dor
*M4/2	*M4/2	*M4/2	*M4/2	*M4/2
=1	=1	=1	=1	=1
0r	0r	0d	0r	0r
=2	=2	=2	=2	=2
0r	0r	1f	0r	0r
.	.	1e	.	.
=3	=3	=3	=3	=3
0r	0G	1d	0r	0r
.	.	[1g	.	.
=4	=4	=4	=4	=4
0r	1B-	2g]	0r	0r
.	.	2f	.	.
.	1A	1f	.	.
=5	=5	=5	=5	=5
0r	1G	2.b-	0r	[0g
.	.	4a	.	.
.	[1c	4g	.	.
.	.	4f	.	.
.	.	[2e-	.	.
=6	=6	=6	=6	=6
0r	2c]	2e-]	0r	0g]
.	2B-	2d	.	.
.	1e-	1c	.	.
=7	=7	=7	=7	=7
0r	0d	2G	1r	1b-
.	.	1g	.	.
.	.	.	[1dd	1a
.	.	2f	.	.
=8	=8	=8	=8	=8
0r	1r	1b-	1dd]	1g
.	1d	[1a	1ff	[1dd
=9	=9	=9	=9	=9
1r	1A	1a]	1ee	2dd]
.	.	.	.	2cc
[1D	2.d	1f	[1dd	2.ff
.	4e	.	.	4ee
=10	=10	=10	=10	=10
1D]	2f	2a	1dd]	4dd
.	.	.	.	4cc
.	2d	1f	.	2b-
1F	2c	.	1r	1a
.	2F	[2d	.	.
=11	=11	=11	=11	=11
1E	2.G	2d]	1gg	1g
.	.	2c#	.	.
.	4A	.	.	.
1D	2B-	[1d	2.ff	2r
.	2A	.	.	2a
.	.	.	4ee-	.
=12	=12	=12	=12	=12
[0G	2r	1d]	4dd	2.b-
.	.	.	4cc	.
.	2G	.	2.dd	.
.	.	.	.	4cc
.	2B-	[1g	.	2dd
.	.	.	4b-	.
.	2c	.	2ee-	[2cc
=13	=13	=13	=13	=13
1G]	2d	2g]	1dd	4cc]
.	.	.	.	4b-
.	2B-	2d	.	1b-
1F	1c	2.f	2r	.
.	.	.	[2ff	2a
.	.	4e-	.	.
=14	=14	=14	=14	=14
2.B-	0B-	4d	4ff]	2.b-
.	.	4c	4ee-	.
.	.	1d	4dd	.
4A	.	.	4cc	4cc
4G	.	.	2b-	1dd
4F	.	.	.	.
[2G	.	2B-	2g	.
=15	=15	=15	=15	=15
2G]	1G	2d	2b-	1gg
4F	.	2e-	2cc	.
4E-	.	.	.	.
1D	2A	1f	1dd	2ff
.	2B-	.	.	2dd
=16	=16	=16	=16	=16
1C	2.c	2r	2g	0ee-
.	.	1g	2cc	.
.	4B-	.	.	.
2.E-	4G	.	2b-	.
.	4A	.	.	.
.	4B-	2g	2g	.
4D	4c	.	.	.
=17	=17	=17	=17	=17
4BB-	4d	1.f	1b-	[0dd
4C	4e-	.	.	.
4D	2.d	.	.	.
4E-	.	.	.	.
2F	.	.	2a	.
.	4c	.	.	.
2G	2B-	2d	2g	.
=18	=18	=18	=18	=18
0D	2A	[0d	2f#	0dd]
.	2G	.	1g	.
.	1A	.	.	.
.	.	.	2f#	.
=19	=19	=19	=19	=19
0G	2.G	1d]	0g	2r
.	.	.	.	2dd
.	4A	.	.	.
.	4B-	2r	.	1dd
.	4c	.	.	.
.	4d	2g	.	.
.	4B-	.	.	.
=20	=20	=20	=20	=20
0r	2c	1g	1r	2g
.	2B-	.	.	2dd
.	2A	2c	2r	2cc
.	2G	2g	2dd	[2b-
=21	=21	=21	=21	=21
0r	1d	2g	1dd	4b-]
.	.	.	.	8a
.	.	.	.	8g
.	.	2f	.	2a
.	1r	4b-	2g	4dd
.	.	4a	.	4cc
.	.	4g	2dd	4b-
.	.	4f	.	4a
=22	=22	=22	=22	=22
0r	0r	2e-	2cc	2g
.	.	2d	2b-	2f
.	.	1c	1ee-	2g
.	.	.	.	2a
=23	=23	=23	=23	=23
1G	0r	2B-	2.dd	2.b-
.	.	2G	.	.
.	.	.	4cc	4cc
1G	.	1g	2b-	[1dd
.	.	.	4a	.
.	.	.	4g	.
=24	=24	=24	=24	=24
2D	1d	2g	2a	0dd]
2G	.	2g	2b-	.
2G	1d	2b-	2g	.
2F	.	2a	2a	.
=25	=25	=25	=25	=25
1B-	2G	2g	2b-	2.dd
.	2d	2d	2g	.
.	.	.	.	4ee
1A	2d	2r	1a	2ff
.	2c	2a	.	2ee
=26	=26	=26	=26	=26
1D	4f	1a	1r	2dd
.	4e-	.	.	.
.	4d	.	.	2a
.	4c	.	.	.
2.G	4B-	2d	2r	[1b-
.	4A	.	.	.
.	2G	2g	2dd	.
4A	.	.	.	.
=27	=27	=27	=27	=27
4B-	1d	2g	1dd	2b-]
4c	.	.	.	.
2d	.	2f	.	2a
2c	1r	2e	2g	1r
2B-	.	2d	2dd	.
=28	=28	=28	=28	=28
1A	1r	1e	2dd	1a
.	.	.	2cc	.
[1D	2r	4d	2.ff	1a
.	.	4e	.	.
.	2d	4f	.	.
.	.	4g	4ee	.
=29	=29	=29	=29	=29
1D]	1d	2a	4ff	2d
.	.	.	4ee-	.
.	.	2f	4dd	2a
.	.	.	4cc	.
1r	2G	2b-	2.dd	2g
.	2d	2a	.	2f
.	.	.	8cc	.
.	.	.	8dd	.
=30	=30	=30	=30	=30
0r	2c	2cc	2ee-	2g
.	2B-	2f	1dd	1b-
.	1e-	1g	.	.
.	.	.	2cc	4a
.	.	.	.	4g
=31	=31	=31	=31	=31
2r	0d	2a	0dd	2f
2G	.	2g	.	2b-
2G	.	2r	.	2b-
[2B-	.	2d	.	[2dd
=32	=32	=32	=32	=32
2B-]	0r	2d	1r	2dd]
4A	.	1f	.	4cc
4G	.	.	.	4b-
2F	.	.	2r	2a
2G	.	4e-	2g	2b-
.	.	4d	.	.
=33	=33	=33	=33	=33
2C	0r	2e-	2g	2cc
2D	.	2d	1b-	2f
1E-	.	2.B-	.	1g
.	.	.	4a	.
.	.	8A	4g	.
.	.	8G	.	.
=34	=34	=34	=34	=34
0D	2r	2.d	2.f	1a
.	2d	.	.	.
.	.	4e	4g	.
.	2d	2f	1a	2r
.	[2f	[2d	.	2a
=35	=35	=35	=35	=35
0r	2f]	2d]	1r	2a
.	4e	2c	.	1cc
.	4d	.	.	.
.	2c	2e	2r	.
.	2d	2f	2dd	4b-
.	.	.	.	4a
=36	=36	=36	=36	=36
0r	2G	2g	2dd	2b-
.	2A	2c	1ff	2a
.	1B-	1d	.	2f
.	.	.	4ee	2g
.	.	.	4dd	.
=37	=37	=37	=37	=37
2r	2.A	0e	2.cc	1a
2A	.	.	.	.
.	4B	.	4dd	.
2A	4c	.	4ee	2r
.	4d	.	4ff	.
[2c	4e	.	[2ee	2g
.	4f	.	.	.
=38	=38	=38	=38	=38
2c]	2.g	0r	2ee]	2g
4B-	.	.	1dd	1b-
4A	4f	.	.	.
2G	1e	.	.	.
2A	.	.	2cc#	4a
.	.	.	.	4g
=39	=39	=39	=39	=39
4B-	1d	2r	[0dd	2f
4A	.	.	.	.
4G	.	2d	.	2g
4F	.	.	.	.
2G	1r	2d	.	2b-
2F	.	[2f	.	[2a
=40	=40	=40	=40	=40
1B-	1d	2f]	1dd]	2a]
.	.	4e	.	2g
.	.	4d	.	.
2A	2e	2c#	2r	1a
4D	[2f	2d	2a	.
4E	.	.	.	.
=41	=41	=41	=41	=41
4F	2f]	1A	2a	1r
4G	.	.	.	.
1A	4e	.	1cc	.
.	4d	.	.	.
.	2c	2e	.	2r
2D	2d	2f	4b-	2dd
.	.	.	4a	.
=42	=42	=42	=42	=42
0r	2G	2g	2b-	2dd
.	2A	2c	2a	1ff
.	1B-	1d	2f	.
.	.	.	2g	4ee
.	.	.	.	4dd
=43	=43	=43	=43	=43
0r	0A	2e	0a	2cc#
.	.	2f	.	1dd
.	.	1e	.	.
.	.	.	.	2cc#
=44	=44	=44	=44	=44
1G	1d	2d	2.b-	2dd
.	.	2G	.	2.b-
.	.	.	4cc	.
2G	2r	2B-	1dd	.
.	.	.	.	8a
.	.	.	.	8g
[2B-	2d	2d	.	2f
=45	=45	=45	=45	=45
2B-]	2d	2B-	1r	2g
4A	1f	2c	.	1a
4G	.	.	.	.
2F	.	1d	2r	.
2G	4e-	.	2g	2b-
.	4d	.	.	.
=46	=46	=46	=46	=46
2C	2e-	2r	2g	2cc
2D	2d	1d	1b-	2f
1E-	1G	.	.	1g
.	.	2c	4a	.
.	.	.	4g	.
=47	=47	=47	=47	=47
0D	2A	1.d	2f#	1r
.	2B-	.	1g	.
.	1A	.	.	1dd
.	.	2A	2f#	.
=48	=48	=48	=48	=48
2r	1G	2B	0g	2dd
2C	.	2c	.	1ee-
2C	2r	4G	.	.
.	.	4A	.	.
[2G	2d	4B	.	4dd
.	.	4c	.	4cc
=49	=49	=49	=49	=49
2G]	2d	2d	[0g	2b
2C	2e-	1c	.	2cc
1G	1d	.	.	1dd
.	.	2B	.	.
=50	=50	=50	=50	=50
0C	2.e-	0c	0g]	2.cc
.	4d	.	.	4dd
.	1c	.	.	1ee-
=51	=51	=51	=51	=51
[0G	[0B	[0d	[0g	[0dd
=52	=52	=52	=52	=52
0G]	0B]	0d]	0g]	0dd]
==	==	==	==	==
*-	*-	*-	*-	*-
!!!CDT: 1525/^1526/-1594/2/2
!!!OCY: Italia
!!!AGN: Mass (Parody)
!!!AST: renaissance, vocal
!!!ASW: Motet 1538 (Jacquet)
!!!PWK: Masses, Book 2
!!!RNB: Cadence finals: D
!!!YOR: Le Opere Complete, v. 4, p. 126
!!!YOO: Rome, Italy: Fratelli Scalera
!!!END: 1992//
!!!EED: John Miller
!!!YEC: Copyright 2000, John Miller
!!!YEN: United States of America
!!!YEM: Rights to all derivative electronic formats reserved.
!!!YEM: Refer to licensing agreement for further details.
!!!YEM: This file must be accompanied by the licensing agreement.
!!!YEM: A copy of the licensing agreement may be found at http://www.music-cog.ohio-state.edu/HumdrumDatabases/Palestrina/license.txt
!!!EMD: converted to Humdrum by Bret Aarden
